svgs/sharp-light/cat.svg

<svg xmlns="http://www.w3.org/2000/svg" viewBox="0 0 576 512"><!--! Font Awesome Pro 6.6.0 by @fontawesome - https://fontawesome.com License - https://fontawesome.com/license (Commercial License) Copyright 2024 Fonticons, Inc. --><path d="M336 0l24 0 6.6 0 4.7 4.7L414.6 48l34.7 0L492.7 4.7 497.4 0 504 0l24 0 16 0 0 16 0 128c0 61.9-50.1 112-112 112s-112-50.1-112-112l0-128 0-16 16 0zm16 144c0 44.2 35.8 80 80 80s80-35.8 80-80l0-112-1.4 0L467.3 75.3 462.6 80 456 80l-48 0-6.6 0-4.7-4.7L353.4 32 352 32l0 112zM128 299.2c33.8-61.5 92.1-108.2 162.9-126.2c2.2 10.6 5.5 20.9 9.9 30.5C200.2 228.2 128 318.7 128 424l0 56 48 0 128 0c0 0 0 0 0 0l48 0 0-5.3c0-14.7-11.9-26.7-26.7-26.7L288 448l-16 0 0-16 0-16 0-24c0-22.1-17.9-40-40-40l-8 0-16 0 0-32 16 0 8 0c39.8 0 72 32.2 72 72l0 7.3 118.2-91.9L448 287.3l0 32.7 0 160 32 0 0-200.2c11.4-4 22.1-9.4 32-16.1L512 496l0 16-16 0-64 0-16 0 0-16 0-143.3-82.2 63.9c28.4 4.1 50.2 28.5 50.2 58.1l0 21.3 0 16-16 0-64 0-128 0c0 0 0 0 0 0l-64 0-16 0 0-16 0-72 0-248c0-26.5-21.5-48-48-48l-16 0 0-32 16 0c44.2 0 80 35.8 80 80l0 123.2zM384 128a16 16 0 1 1 32 0 16 16 0 1 1 -32 0zm80-16a16 16 0 1 1 0 32 16 16 0 1 1 0-32z"/></svg>

<svg xmlns="http://www.w3.org/2000/svg" viewBox="0 0 576 512"><!--! Font Awesome Pro 6.4.2 by @fontawesome - https://fontawesome.com License - https://fontawesome.com/license (Commercial License) Copyright 2023 Fonticons, Inc. --><path d="M336 0h24 6.6l4.7 4.7L414.6 48h34.7L492.7 4.7 497.4 0H504h24 16V16 144c0 61.9-50.1 112-112 112s-112-50.1-112-112V16 0h16zm16 144c0 44.2 35.8 80 80 80s80-35.8 80-80V32h-1.4L467.3 75.3 462.6 80H456 408h-6.6l-4.7-4.7L353.4 32H352V144zM128 299.2c33.8-61.5 92.1-108.2 162.9-126.2c2.2 10.6 5.5 20.9 9.9 30.5C200.2 228.2 128 318.7 128 424v56l48 0 128 0 0 0h48v-5.3c0-14.7-11.9-26.7-26.7-26.7H288 272V432 416 392c0-22.1-17.9-40-40-40h-8H208V320h16 8c39.8 0 72 32.2 72 72v7.3l118.2-91.9L448 287.3V320 480h32V279.8c11.4-4 22.1-9.4 32-16.1V496v16H496 432 416V496 352.7l-82.2 63.9c28.4 4.1 50.2 28.5 50.2 58.1V496v16H368l-64 0-128 0 0 0H112 96V496 424 176c0-26.5-21.5-48-48-48H32V96H48c44.2 0 80 35.8 80 80V299.2zM384 128a16 16 0 1 1 32 0 16 16 0 1 1 -32 0zm80-16a16 16 0 1 1 0 32 16 16 0 1 1 0-32z"/></svg>
